X: 2
T: Glencoe
T: The Glencoe Village Hall
T: The Glencoe March
M: 4/4
L: 1/8
K: D Major
|: (3EFG | 
A2 d2 F2 d2 | A>FA<d f3 a | g2 g>e c>Ac<e | d>cd>B A>GF<G |
A2 (3ddd F2 (3ddd | A>FA<d f3 a | g>f (3gfe c>Ac<e | (3ded d>c d2 :|
|: (3efg | 
a>ba>g f>df<a | g2 g>e c2 c<e | d>cd>e f>ef<a | g>fg<b (3aba f<g |
[1 a2 a>g f2 f<a | g>ag>e c>Ac<e | d2 (3def e<ac<e | d2 d>c d2 :|
[2 (3agf g>e (3fed e<c | d>BA>F D2 F<d | B>G (3Bcd c>Ac<e | d2 (3ddd d2 |]
